assets/icons/utility/insert_tag_field.svg

<?xml version="1.0"?><svg xmlns="http://www.w3.org/2000/svg" width="52" height="52" viewBox="0 0 52 52"><path fill="#fff" d="m16.3 12.2l-2.3-1.9c-0.7-0.5-1.5-0.4-2.1 0.2l-11.6 14.6c-0.4 0.5-0.4 1.3 0 1.9l11.7 14.5c0.5 0.6 1.4 0.8 2.1 0.2l2.3-1.9c0.7-0.5 0.8-1.5 0.2-2.1l-9.4-11.7 9.5-11.7c0.4-0.6 0.3-1.5-0.4-2.1z m35.4 12.9l-11.7-14.5c-0.5-0.6-1.4-0.8-2.1-0.2l-2.3 1.9c-0.7 0.5-0.8 1.5-0.2 2.1l9.5 11.7-9.5 11.7c-0.5 0.6-0.4 1.6 0.2 2.1l2.3 1.9c0.7 0.5 1.5 0.4 2.1-0.2l11.7-14.6c0.4-0.7 0.4-1.4 0-1.9z m-20.1-14.3l-3-0.7c-0.8-0.2-1.7 0.3-1.9 1.1l-7.4 28.4c-0.2 0.8 0.3 1.6 1.1 1.8l3 0.7c0.8 0.2 1.7-0.3 1.9-1.1l7.4-28.4c0.2-0.9-0.3-1.6-1.1-1.8z"></path></svg>

<svg xmlns="http://www.w3.org/2000/svg" x="0px" y="0px"
	 width="52px" height="52px" viewBox="0 0 52 52" enable-background="new 0 0 52 52" xml:space="preserve">
<path fill="#FFFFFF" d="M16.3,12.2L14,10.3c-0.7-0.5-1.5-0.4-2.1,0.2L0.3,25.1c-0.4,0.5-0.4,1.3,0,1.9L12,41.5
	c0.5,0.6,1.4,0.8,2.1,0.2l2.3-1.9c0.7-0.5,0.8-1.5,0.2-2.1L7.2,26l9.5-11.7C17.1,13.7,17,12.8,16.3,12.2z"/>
<path fill="#FFFFFF" d="M51.7,25.1L40,10.6c-0.5-0.6-1.4-0.8-2.1-0.2l-2.3,1.9c-0.7,0.5-0.8,1.5-0.2,2.1l9.5,11.7l-9.5,11.7
	c-0.5,0.6-0.4,1.6,0.2,2.1l2.3,1.9c0.7,0.5,1.5,0.4,2.1-0.2L51.7,27C52.1,26.3,52.1,25.6,51.7,25.1z"/>
<path fill="#FFFFFF" d="M31.6,10.8l-3-0.7c-0.8-0.2-1.7,0.3-1.9,1.1l-7.4,28.4c-0.2,0.8,0.3,1.6,1.1,1.8l3,0.7
	c0.8,0.2,1.7-0.3,1.9-1.1l7.4-28.4C32.9,11.7,32.4,11,31.6,10.8z"/>
</svg>
